!!!OTL: Maedchen und Hasel Es geht ein' Frau in gruenen Wald
!!!ARE: Europa, Osteuropa, Tschechoslowakei, Deutsch - Proben, Sprachinsel
!!    Kremnitz, Glaserhaeu
!!!ARD1: Europa%Osteuropa%Tschechoslowakei@Deutsch-Proben:Sprachinsel Kremnitz!Glaserhaeu!?
!!!ARL1: ? / ?
!!!ARD2: Europa%Osteuropa%Slovensko@Deutsch-Proben:Sprachinsel Kremnitz!?
!!!ARL2: 48.70/18.91!?
!!!ARD3: Europa%Osteuropa%Slovensko@Deutsch-Proben:
!!!ARL3: 48.86/18.63:
!!!YOR: 6, S. 245
!!    1930 aufgezeichnet
!!!SCT: Q0138C
!!!YEM: Copyright 1995, estate of Helmut Schaffrath.
**kern
*ICvox
*Ivox
!! Mixed meters:  3/4; 4/4
*M3/4
*k[f#]
*e:
{8e
8e
8gn
=1
4.b
8a#
8b
8ccn
=2
*M4/4
4a
4r}
{8ddn
8cc#
8ddn
8ee
=3
*M3/4
4ddn
4b}
{8.b
16b
=4
4.ddn
8b
8.ddn
16ddn
=5
4.gn}
{8a
8b
8b
=6
4.gn
8b
8a
8gn
=7
4e
8r}
==
!!!AGN: Ballade, verlorene Unschuld, Moral
!!!ONB: ESAC (Essen Associative Code) Database: BALLADE
!!!AMT: irregular
!!!AIN: vox
!!!EED: Helmut Schaffrath
!!!EEV: 1.0
*-
!!!title: @{OTL} [@{SCT}]
